svgs/sharp-light/binary-slash.svg

<svg xmlns="http://www.w3.org/2000/svg" viewBox="0 0 640 512"><!--! Font Awesome Pro 6.6.0 by @fontawesome - https://fontawesome.com License - https://fontawesome.com/license (Commercial License) Copyright 2024 Fonticons, Inc. --><path d="M432 224l64 0 16 0 0-32-16 0-48 0 0-176 0-16L432 0 368 0 352 0l0 32 16 0 48 0 0 160-48 0-16 0 0 7.7L382.8 224l49.2 0zM320 16l0-16L304 0 144 0 128 0l0 16 0 6.9 32 25.3L160 32l128 0 0 117.2 32 25.3L320 16zm0 480l0 16 16 0 160 0 16 0 0-16 0-6.9-32-25.3 0 16.1-128 0 0-117.2-32-25.3L320 496zM144 288l-16 0 0 32 16 0 48 0 0 160-48 0-16 0 0 32 16 0 64 0 64 0 16 0 0-32-16 0-48 0 0-176 0-16-16 0-64 0zM40.4 18L27.8 8.1 8.1 33.4l12.6 9.8L599.8 494.3l12.6 9.8 19.7-25.2L619.5 469 40.4 18z"/></svg>

<svg xmlns="http://www.w3.org/2000/svg" viewBox="0 0 640 512"><!--! Font Awesome Pro 6.4.2 by @fontawesome - https://fontawesome.com License - https://fontawesome.com/license (Commercial License) Copyright 2023 Fonticons, Inc. --><path d="M432 224h64 16V192H496 448V16 0H432 368 352V32h16 48V192H368 352v7.7L382.8 224H432zM320 16V0H304 144 128V16v6.9l32 25.3V32H288V149.2l32 25.3V16zm0 480v16h16H496h16V496v-6.9l-32-25.3V480H352V362.8l-32-25.3V496zM144 288H128v32h16 48V480H144 128v32h16 64 64 16V480H272 224V304 288H208 144zM40.4 18L27.8 8.1 8.1 33.4l12.6 9.8L599.8 494.3l12.6 9.8 19.7-25.2L619.5 469 40.4 18z"/></svg>
